public/mascots/nj/bunny-hype-boy-128x128.svg

<svg xmlns="http://www.w3.org/2000/svg" width="128" height="128" viewBox="0 0 128 128"><path fill="none" stroke="#00f" stroke-linecap="round" stroke-linejoin="round" stroke-width="3" d="m44 48 4-40q4-8 12 0l-4 36M68 44l4-36q8-8 12 0l-4 40"/><ellipse cx="64" cy="64" fill="none" stroke="#00f" stroke-width="3" rx="28" ry="24"/><ellipse cx="64" cy="72" fill="none" stroke="#00f" stroke-width="2.5" rx="12" ry="10"/><ellipse cx="64" cy="68" fill="#00f" rx="6" ry="5"/><path stroke="#00f" stroke-linecap="round" stroke-width="2.5" d="m44 56 12 4M72 60l12-4"/><path fill="none" stroke="#00f" stroke-linecap="round" stroke-width="3" d="M52 80q12 16 24 0"/><path fill="none" stroke="#00f" stroke-linecap="round" stroke-linejoin="round" stroke-width="3" d="M40 88q0 16 24 20 24-4 24-20"/><path stroke="#00f" stroke-linecap="round" stroke-width="2.5" d="M36 92 24 80M92 92l12-12"/></svg>

<svg xmlns="http://www.w3.org/2000/svg" viewBox="0 0 128 128" width="128" height="128">
  <!-- Both ears up straight -->
  <path d="M44 48 L48 8 Q52 0 60 8 L56 44" 
        fill="none" stroke="#0000FF" stroke-width="3" stroke-linecap="round" stroke-linejoin="round"/>
  <path d="M68 44 L72 8 Q80 0 84 8 L80 48" 
        fill="none" stroke="#0000FF" stroke-width="3" stroke-linecap="round" stroke-linejoin="round"/>
  <ellipse cx="64" cy="64" rx="28" ry="24" fill="none" stroke="#0000FF" stroke-width="3"/>
  <ellipse cx="64" cy="72" rx="12" ry="10" fill="none" stroke="#0000FF" stroke-width="2.5"/>
  <ellipse cx="64" cy="68" rx="6" ry="5" fill="#0000FF"/>
  <!-- Happy excited eyes -->
  <path d="M44 56 L56 60" stroke="#0000FF" stroke-width="2.5" stroke-linecap="round"/>
  <path d="M72 60 L84 56" stroke="#0000FF" stroke-width="2.5" stroke-linecap="round"/>
  <!-- Big smile -->
  <path d="M52 80 Q64 96 76 80" fill="none" stroke="#0000FF" stroke-width="3" stroke-linecap="round"/>
  <!-- Bouncy body -->
  <path d="M40 88 Q40 104 64 108 Q88 104 88 88" 
        fill="none" stroke="#0000FF" stroke-width="3" stroke-linecap="round" stroke-linejoin="round"/>
  <!-- Arms up -->
  <path d="M36 92 L24 80" stroke="#0000FF" stroke-width="2.5" stroke-linecap="round"/>
  <path d="M92 92 L104 80" stroke="#0000FF" stroke-width="2.5" stroke-linecap="round"/>
</svg>
